X:12285
T:Old Age & Young. BF13.039
M:3/4
Q:120
S:J.Lishman()MS,c1825,Lakes,Browne Coll.
R:Air
O:England
A:Lakes
Z:vmp.Chris Partington
K:F
E2 DG B2dc/B/|AGGB AG|DG B2dc/B/|AFFB AF::!
DGGB AG|DGGAG2|DGGB AG|DEFG A/G/F::!
Gggag2|Ggga b/a/g/f/|dggdf2|(cd/e/ fc AF:|]
